**kern	**kern
*staff1	*staff1
*solos[solo1,solo2,solo3,solo4]
=1-	=1-	!!Head
*clefG2	*clefG2
*k[]	*k[]
*B-:	*B-:
*M4/4	*M4/4
*>head1
{8B-/L	1B-:maj
8c/	.
8B-/	.
8G/J	.
4r	.
8r	.
8B-/	.
=2	=2
4d/	1B-:dom
8f/L	.
8c/J	.
8r	.
8F/	.
8r	.
8d/	.
=3	=3
8B-/L	1B-:dom
8c/	.
8B-/	.
8G/J	.
8e-/L	.
8d/	.
8B-/	.
8A-/J	.
=4	=4
8r	1B-:dom
8g/	.
8r	.
8f/	.
8c/L	.
8A-/	.
8F#/	.
8G/J	.
=5	=5
8f/L	1E-:dom
8e-/	.
8B-/	.
8G/J	.
8B-/}	.
8r	.
8r	.
{[8d-/	.
=6	=6
4d-/]	1E-:min
8B-/L	.
8G-/J	.
8c/L	.
8B-/	.
8G-/	.
8F/J	.
=7	=7
4r	1B-:dom
8r	.
8B-/	.
8A/	.
8r	.
8r	.
8c/	.
=8	=8
8f#/L	1D-:min
8e/J	.
12B/L	.
12G#/	.
12d#/J	.
4r	.
8r	.
8c#/	.
=9	=9
8c/L	1C:min
8G/J	.
8r	.
8A/	.
8c/L	.
8B-/	.
8A/	.
8G/J	.
=10	=10
8G-/L	1F:dom
8B-/	.
8c/	.
8d/J	.
8e-/L	.
8c/	.
8d/	.
8e-/J	.
=11	=11
24d/LL	1B-:dom
24e-/	.
24d/JJ	.
8B-/L	.
8e-/	.
8B-/J	.
8d/L	.
8e-/J	.
24d/LL	.
24e-/	.
24d/JJ	.
8B-/	.
=12	=12
4e-/}	1C:min
4r	.
2r	.
=13	=13
4e-/	2C:min
4r	.
8r	2F:dom
*>solo1
{4.d/	.
=14:|!	=14:|!	!!Chorus 1
4b-\	1B-:maj
4r	.
24a-/LL	.
24b-/	.
24a-/JJ	.
8f/L	.
8e-/	.
8B-/J	.
=15||	=15||
8c/L	1E-:dom
8d-/	.
8B-/	.
8G/J	.
8c/L	.
8B-/J	.
12c/L	.
12e-/	.
12g-/J	.
=16	=16
8f/L	1B-:dom
8e-/	.
8d/	.
8c/J	.
8B-/L	.
8A/	.
8A-/	.
8c/J	.
=17	=17
8b-/L	1B-:dom:#5
8g-/	.
8d/	.
8B-/J	.
8c/L	.
8A-/	.
8F/	.
8B-/J	.
=18	=18
8G/L	1E-:dom
8B-/	.
8c/	.
8f/J	.
4e-/}	.
4r	.
=19	=19
1r	1E-:dom
=20	=20
8r	1B-:dom
{8f#/	.
12g\L	.
12b-\	.
12dd\J	.
8ff\L	.
8ee-\	.
8dd\	.
8cc\J	.
=21	=21
8b/L	1G-:dom:9-
8d/	.
8f/	.
8g/J	.
8a-/L	.
16b-/L	.
16a-/J	.
8g/	.
8f/J	.
=22	=22
8e-/L	1C:min
8G/	.
8B-/	.
8e-/J	.
8d/L	.
8c/	.
8B-/	.
8G/J	.
=23	=23
8A/L	1F:dom
[8f/J	.
2f/]	.
8c/L	.
[8f/J	.
=24	=24
2f/]	1B-:dom
8c#/L	.
[8f/J	.
4f/]	.
=25	=25
8d/L	2C:min
[8f/J	.
4f/]}	.
2r	2F:dom
=26	=26	!!Chorus 2
8r	1B-:dom
*>solo2
{8A/	.
12B-/L	.
12d/	.
12f/J	.
8b-/L	.
8a-/	.
8g/	.
8f/J	.
=27||	=27||
8e-/L	1E-:dom
8A/	.
8B-/	.
8c/J	.
8d-/L	.
8B-/	.
8G/	.
8A/J	.
=28	=28
8c/L	1B-:dom
8B-/	.
8A/	.
8B-/J	.
12d/L	.
12d#/	.
12e/J	.
8f/L	.
8g/J	.
=29	=29
8a-/L	1F:min
8c/	.
8B/	.
8c/J	.
8g/L	2B-:dom
8g-/	.
8e/	.
8A/J	.
=30	=30
8B/L	1E-:dom
16c#/L	.
16B/J	.
8A-/	.
8G-/J	.
8Gn/L	.
8f/	.
8e-/	.
8G/J	.
=31	=31
8B-/L	1E-:dom
8d-/	.
8B-/	.
8G/J	.
8c/L	.
8A/J	.
12B-/L	.
12dn/	.
12f/J	.
=32	=32
12a\L	1B-:dom
12b-\	.
12bn\J	.
8cc/L	.
8a/J	.
8b-/L	.
8a/	.
8g/	.
8g-/J	.
=33	=33
8f/L	1G:dom
8e-/	.
8d/	.
8c/J	.
8B/L	.
8a-/	.
8g/	.
8f/J	.
=34	=34
8e-/L	1C:min
8G/J	.
8r	.
8e-/	.
8d/L	.
8c/	.
8B-/	.
8G/J	.
=35	=35
4A/}	1F:dom
4r	.
4r	.
{12f/L	.
12g/	.
12b-/J	.
=36	=36
[4dd\	1B-:dom
12dd\L]	.
12ff\	.
12ee-\J	.
8dd\L	.
8b-\J}	.
4r	.
=37	=37
2r	2C:min
8r	2F:dom
*>solo3
{16b-\LL	.
16b-\J	.
8b-\	.
[8ee\J	.
=38	=38	!!Chorus 3
8ee\L]	1B-:dom
[8ee-\	.
8ee-\]	.
[8dd-\J	.
24dd-\LL]	.
24ee-\	.
24dd-\JJ	.
8b-\L	.
8cc\	.
8b-\J}	.
=39||	=39||
4r	1B-:dom
8r	.
{[8a-/	.
24a-/LL]	.
24b-/	.
24a-/JJ	.
8f/L	.
8e-/	.
8B-/J	.
=40	=40
8c#/L	1B-:dom
8e/	.
8B-/	.
8G/J	.
8cn/L	.
8F/J	.
12c/L	.
12e-/	.
12g/J	.
=41	=41
8b-/L	1B-:dom
8g-/	.
8e/	.
8B-/J	.
8Bn/L	.
8d-/	.
8A-/	.
8G-/J	.
=42	=42
8G/L	1E-:dom
8f/	.
8e-/	.
8G/J	.
8B-/L	.
8d-/	.
8B-/	.
8G/J	.
=43	=43
8c/L	1E-:dom
8A/J	.
12B-/L	.
12d/	.
12f/J	.
12a\L	.
12b-\	.
12bn\J	.
8cc/L	.
8a/J	.
=44	=44
4ff\	1B-:dom
8cc/L	.
8f/J	.
2cc\}	.
=45	=45
2r	1B-:dom
{8r	.
8dd\L	.
8ee-\	.
8ff\J	.
=46	=46
8dd\L	1C:min
8cc\J}	.
4r	.
4r	.
8r	.
{24dd\LL	.
24dd-\	.
24cc\JJ	.
=47	=47
8b/L	1F:dom
8g/	.
8e-/	.
8c/J	.
8b-/L	.
8g/	.
8a/	.
8cc/J	.
=48	=48
12b-\L	1B-:dom
12cc\	.
12b-\J	.
8g-/L	.
8f/J}	.
4r	.
8r	.
*>solo4
{[8b-\	.
=49	=49
8b-\L]	2C:min
16cc\L	.
16b-\J	.
8a\	.
8g\J	.
8f/L	2F:dom
8e-/	.
8d/	.
8c/J	.
=50	=50	!!Chorus 4
4b-\	1B-:dom
12f/L	.
12e/	.
12f/J	.
4f#/	.
8r	.
[8fn/	.
=51||	=51||
8f/L]	1B-:dom
8A/	.
8B-/	.
8e-/J	.
8c/L	.
8c#/	.
8d/	.
8c#/J	.
=52	=52
8c/L	1B-:dom
8B/	.
8B-/	.
8A/J	.
8A-/L	.
8c/	.
8g/	.
[8f/J	.
=53	=53
8f/]}	1B-:dom
8r	.
4r	.
8r	.
{8B-/	.
12G/L	.
12A-/	.
12B-/J	.
=54	=54
12G/L	1E-:dom
12A-/	.
12B-/J	.
12G/L	.
12A-/	.
12B-/J	.
12c#/L	.
12d/	.
12e-/J	.
12f/L	.
12f#/	.
12g/J	.
=55	=55
12a-/L	1E-:dom
12an/	.
12b-/J	.
4a-/	.
8r	.
8g-/L	.
8e-/	.
8en/J	.
=56	=56
8f/L	1B-:dom
8e-/J	.
12d/L	.
12f/	.
12a/J	.
8cc/L	.
8b-/	.
8a/	.
8g/J	.
=57	=57
8f/L	2D:min
8e-/	.
8d/	.
8c/J	.
8B/L	2G:dom
8a-/	.
8g/	.
8f/J	.
=58	=58
8e-/L	1C:min
8G/	.
8c/	.
8e-/J	.
8d/L	.
8c/	.
8B-/	.
8G/J	.
=59	=59
4A/}	1F:dom
4r	.
{8f/L	.
8g/	.
8b-/	.
[8dd/J	.
=60	=60
4dd\]	1B-:dom
4b-\	.
4r	.
8f/L	.
8g/J	.
=61	=61
8b-\L	2C:min
[8dd\J	.
4dd\]	.
8b-\L	2F:dom
8cc\	.
8b-\	.
8g\J	.
=62	=62
4b-\}	1B-:dom
4r	.
2r	.
==	==
*-	*-
